src/assets/svg/icons/fa/nuevos/classic/duotone/place-of-worship classic duotone.svg

<svg xmlns="http://www.w3.org/2000/svg" viewBox="0 0 640 512"><!--! Font Awesome Pro 6.4.0 by @fontawesome - https://fontawesome.com License - https://fontawesome.com/license (Commercial License) Copyright 2023 Fonticons, Inc. --><defs><style>.fa-secondary{opacity:.4}</style></defs><path class="fa-primary" d="M224 201.6V109.3c0-8.5 3.4-16.6 9.4-22.6l75.3-75.3c6.2-6.2 16.4-6.2 22.6 0l75.3 75.3c6 6 9.4 14.1 9.4 22.6v92.3L456.7 226c14.5 8.7 23.3 24.3 23.3 41.2V512H384V416c0-35.3-28.7-64-64-64s-64 28.7-64 64v96H160V267.2c0-16.9 8.8-32.5 23.3-41.2L224 201.6z"/><path class="fa-secondary" d="M160 272L28.3 331.3C11.1 339 0 356.2 0 375v89c0 26.5 21.5 48 48 48H160V272zM480 512H592c26.5 0 48-21.5 48-48V375c0-18.9-11.1-36-28.3-43.8L480 272V512z"/></svg>

<svg xmlns="http://www.w3.org/2000/svg" viewBox="0 0 640 512"><defs><style>.fa-secondary{opacity:.4}</style></defs><path class="fa-primary" d="M224 201.6V109.3C224 100.8 227.4 92.63 233.4 86.63L308.7 11.32C314.9 5.067 325.1 5.067 331.3 11.32L406.6 86.63C412.6 92.63 416 100.8 416 109.3V201.6L456.7 226C471.2 234.7 480 250.3 480 267.2V512H384V416C384 380.7 355.3 352 320 352C284.7 352 256 380.7 256 416V512H160V267.2C160 250.3 168.8 234.7 183.3 226L224 201.6z"/><path class="fa-secondary" d="M160 512H48C21.49 512 0 490.5 0 464V375C0 356.2 11.08 339 28.3 331.3L160 272V512zM480 272L611.7 331.3C628.9 339 640 356.1 640 375V464C640 490.5 618.5 512 592 512H480V272z"/></svg>
